svg/fluentui-system-icons/ic_fluent_building_bank_toolbox_20_filled.svg

<svg width="20" height="20" viewBox="0 0 20 20" fill="none" xmlns="http://www.w3.org/2000/svg">
<path d="M8.22808 2.18336C8.69018 1.85554 9.30898 1.85555 9.77106 2.18338L15.6226 6.3348C16.3504 6.85112 15.9863 7.99667 15.0951 7.99908L2.90669 7.99909C2.01341 7.99909 1.64773 6.85165 2.37629 6.33479L8.22808 2.18336ZM9.00008 5.87413C9.46032 5.87413 9.83342 5.50103 9.83342 5.04079C9.83342 4.58055 9.46032 4.20746 9.00008 4.20746C8.53984 4.20746 8.16675 4.58055 8.16675 5.04079C8.16675 5.50103 8.53984 5.87413 9.00008 5.87413ZM3.49976 8.99908V12.9991H5.49976V8.99908H3.49976ZM4.16642 13.9991C2.96981 13.9991 1.99976 14.9691 1.99976 16.1658V16.4991C1.99976 16.7752 2.22361 16.9991 2.49976 16.9991H9V13.9991H4.16642ZM11.4998 9.99911V8.99908H9.49976V11.9991C9.8686 11.508 10.4141 11.1572 11.0419 11.0409C11.1133 10.6553 11.2732 10.3007 11.4998 9.99911ZM8.49976 12.9991V8.99908H6.49976V12.9991H8.49976ZM12 11.999V11.499C12 10.6706 12.6716 9.99902 13.5 9.99902H15.5C16.3284 9.99902 17 10.6706 17 11.499V11.999H17.5C18.3284 11.999 19 12.6706 19 13.499V14.999H17V14.499C17 14.2229 16.7761 13.999 16.5 13.999C16.2239 13.999 16 14.2229 16 14.499V14.999H13V14.499C13 14.2229 12.7761 13.999 12.5 13.999C12.2239 13.999 12 14.2229 12 14.499V14.999H10V13.499C10 12.6706 10.6716 11.999 11.5 11.999H12ZM13 11.499V11.999H16V11.499C16 11.2229 15.7761 10.999 15.5 10.999H13.5C13.2239 10.999 13 11.2229 13 11.499ZM17 15.999H19V17.499C19 18.3274 18.3284 18.999 17.5 18.999H11.5C10.6716 18.999 10 18.3274 10 17.499V15.999H12V16.499C12 16.7752 12.2239 16.999 12.5 16.999C12.7761 16.999 13 16.7752 13 16.499V15.999H16V16.499C16 16.7752 16.2239 16.999 16.5 16.999C16.7761 16.999 17 16.7752 17 16.499V15.999Z" fill="#212121"/>
</svg>

<svg xmlns="http://www.w3.org/2000/svg" width="20" height="20"><path d="M8.228 2.183a1.333 1.333 0 0 1 1.543 0l5.852 4.152c.727.516.363 1.662-.528 1.664H2.907c-.894 0-1.26-1.147-.53-1.664l5.851-4.152ZM9 5.874a.833.833 0 1 0 0-1.667.833.833 0 0 0 0 1.667ZM3.5 9v4h2V9h-2Zm.666 5C2.97 14 2 14.97 2 16.166v.333a.5.5 0 0 0 .5.5H9v-3H4.166Zm7.334-4V9h-2v3a2.5 2.5 0 0 1 1.542-.958c.071-.386.231-.74.458-1.042Zm-3 3V9h-2v4h2Zm3.5-1v-.5a1.5 1.5 0 0 1 1.5-1.5h2a1.5 1.5 0 0 1 1.5 1.5v.5h.5a1.5 1.5 0 0 1 1.5 1.5V15h-2v-.5a.5.5 0 0 0-1 0v.5h-3v-.5a.5.5 0 0 0-1 0v.5h-2v-1.5a1.5 1.5 0 0 1 1.5-1.5h.5Zm1-.5v.5h3v-.5a.5.5 0 0 0-.5-.5h-2a.5.5 0 0 0-.5.5Zm4 4.5h2v1.5a1.5 1.5 0 0 1-1.5 1.5h-6a1.5 1.5 0 0 1-1.5-1.5V16h2v.5a.5.5 0 1 0 1 0V16h3v.5a.5.5 0 1 0 1 0V16Z"/></svg>
